X:4
T:Pavan for five viols
%%measurenb 0
%%scale 0.8
%%squarebreve
C:Thomas Weelkes
P:Medius
M:C|
L:1/4
K:C clef=alto middle=c
B4 c3 d| c2 G A B3 c | d2 d4 c B | A2 a4g ^f |e2 B4 c d | 
e4 e2 d2 | G2 d2 d4| d4 d4 :: c4 e3 f | g3 f e3 d |c2 f4 e2 |d4 c3 g |
g/f/e/d/ c3 g g/f/e/d/ |c3 e e/d/c/B/ A2 | A a/g/f/e/ d a a/g/f/e/ d | e2 f2 e4|d4 d4 ::
z B c d c e2 d | c G c B c>d e/f/ g | f e f e f3 e | d A d ^c d>e f/g/ a-|
a/g/ f e2 d2 z d- | d/ c/ B A G ^F G A d |[M:6/2] d2 z c d  g>f e  d g>f e|d4 d8:|]

